images/brands/handsontable.svg

<svg fill="none" height="180" viewBox="0 0 520 180" width="520" xmlns="http://www.w3.org/2000/svg"><path d="m52.6012 86.8773h-18.3646v-18.8773h-11.2366v50.163h11.2366v-21.6602h18.3646v21.6602h11.2407v-50.163h-11.2407zm51.8608 8.348c0-5.341-.976-8.2724-3.597-10.6036-2.8491-2.4808-7.0426-3.7584-12.5131-3.7584-10.191 0-15.3604 4.0579-16.0323 12.41h9.5176c.4489-2.9384 2.547-4.2887 6.4436-4.2887 3.4476 0 5.5457 1.2789 5.5457 3.3106 0 1.5028-.8253 2.0989-3.2232 2.4809l-5.7702.9795c-10.1157 1.6553-14.3872 5.1884-14.3872 12.0334s5.3213 11.358 13.3388 11.358c1.8928.093 3.7848-.199 5.5623-.858 1.7774-.66 3.4036-1.674 4.7807-2.98.3722 1.357.3722 1.582.8211 2.86h10.8642c-1.195-1.802-1.347-2.331-1.347-6.242zm-10.3385 11.2047c-1.4708 2.938-4.5225 4.733-7.7945 4.589-3.3751 0-5.398-1.43-5.398-3.836 0-2.183 1.6492-3.46 5.4705-4.361l3.824-.827c1.3342-.249 2.6419-.628 3.9036-1.132zm38.1455-25.645c-3.75 0-5.994.9795-9.898 4.5867v-3.5345h-10.336v36.3258h10.643v-20.3785c0-3.1595.373-4.6651 1.574-6.0168.578-.6355 1.285-1.1392 2.073-1.4771s1.64-.5022 2.497-.4818c1.71-.0896 3.347.7024 4.345 2.0988.898 1.3545 1.125 2.779 1.125 6.4646v19.7908h10.637v-23.5394c.002-8.5732-4.794-13.8386-12.66-13.8386zm43.768 3.764c-2.367-2.5593-5.739-3.9375-9.215-3.764-9.742 0-16.185 7.6749-16.185 19.252 0 11.508 6.369 19.106 15.893 19.106 3.949.253 7.74-1.607 9.966-4.891v3.918h10.188v-50.17h-10.648zm-7.267 25.944c-4.648 0-7.644-4.134-7.644-10.5298 0-6.396 2.996-10.5294 7.644-10.5294s7.641 4.2145 7.641 10.6822c0 6.166-3.071 10.377-7.641 10.377zm44.97-14.666-6.671-1.4273c-3.371-.7514-4.421-1.43-4.421-2.7817 0-1.805 2.023-3.0098 5.097-3.0098 3.523 0 5.694 1.43 6.143 4.1362h9.966c-.976-7.6721-6.594-11.8811-15.884-11.8811-9.667 0-15.435 4.4343-15.435 11.7328 0 5.7859 3.067 8.7239 11.014 10.4509l6.594 1.503c2.85.676 4.043 1.58 4.043 3.311 0 2.181-2.175 3.538-5.546 3.538-4.271 0-6.519-1.582-7.12-5.037h-9.963c.598 8.046 6.818 12.785 16.859 12.785 10.04 0 16.261-4.812 16.261-12.487.051-1.334-.16-2.665-.623-3.917s-1.167-2.4-2.074-3.3773c-1.575-1.6595-3.822-2.632-8.24-3.5387zm33.648-14.9637c-11.241 0-19.181 7.8946-19.181 19.0999 0 11.2818 7.946 19.1798 19.181 19.1798 11.164 0 19.26-7.898 19.26-18.878 0-11.5798-7.793-19.4017-19.26-19.4017zm.075 29.7817c-5.467 0-8.541-3.835-8.541-10.6818 0-6.7682 3.067-10.6022 8.466-10.6022 5.546 0 8.545 3.834 8.545 10.827 0 6.62-3.148 10.457-8.47 10.457zm45.122-29.8586c-3.747 0-5.994.9795-9.898 4.5867v-3.5359h-10.343v36.3258h10.643v-20.3785c0-3.1595.373-4.6651 1.574-6.0168.578-.6355 1.285-1.1392 2.073-1.4771s1.64-.5022 2.497-.4818c1.71-.0896 3.347.7024 4.345 2.0988.901 1.3545 1.125 2.779 1.125 6.4646v19.7908h10.637v-23.5394c.009-8.5732-4.787-13.8372-12.653-13.8372zm32.008-10.0019h-10.637v11.5075h-5.103v7.5196h5.097v16.5464c0 5.639.449 7.593 2.091 9.397 1.574 1.732 3.904 2.408 8.539 2.408h6.522v-8.047h-3.82c-2.472 0-2.702-.45-2.702-6.166v-14.1328h6.522v-7.5252h-6.509zm43.538 24.4408c0-5.341-.976-8.2724-3.597-10.6036-2.849-2.4808-7.043-3.7584-12.513-3.7584-10.191 0-15.361 4.0579-16.033 12.41h9.516c.449-2.9384 2.547-4.2887 6.444-4.2887 3.448 0 5.546 1.2789 5.546 3.3106 0 1.5028-.825 2.0989-3.223 2.4809l-5.771.9795c-10.114 1.6553-14.387 5.1884-14.387 12.0334s5.322 11.358 13.339 11.358c1.893.093 3.785-.199 5.562-.858 1.778-.66 3.404-1.674 4.781-2.98.372 1.357.372 1.582.821 2.86h10.867c-1.195-1.802-1.347-2.331-1.347-6.242zm-10.339 11.2047c-1.471 2.938-4.521 4.734-7.793 4.59-3.375 0-5.398-1.43-5.398-3.835 0-2.183 1.649-3.461 5.471-4.362l3.824-.827c1.334-.249 2.641-.628 3.903-1.132zm38.518-25.5667c-3.631-.0334-7.159 1.2174-9.964 3.5332v-16.3965h-10.642v50.163h10.194v-4.136c2.846 3.764 5.393 5.116 9.888 5.116 9.293 0 15.958-8.199 15.958-19.6304.002-11.1311-6.215-18.6493-15.432-18.6493zm-2.696 29.6297c-4.645 0-7.716-4.209-7.716-10.5298 0-6.2393 3.067-10.4539 7.716-10.4539 4.72 0 7.641 4.0579 7.641 10.6067.001 6.315-2.993 10.377-7.641 10.377zm23.839 7.672h10.643v-50.165h-10.643zm50.962-26.624c-2.702-6.8437-8.469-10.6763-16.113-10.6763-10.94 0-18.508 7.8219-18.508 19.1703 0 11.433 7.419 19.105 18.586 19.105 8.614 0 15.36-4.514 17.383-11.583h-10.792c-1.328 2.176-3.758 3.424-6.294 3.232-4.57 0-7.496-2.706-8.17-7.666h25.704c.178-3.9434-.432-7.8823-1.797-11.5834zm-23.83 4.0579c.822-4.2873 3.523-6.6185 7.642-6.6185 4.118 0 6.595 2.3312 7.044 6.6185zm31.13 29.0401v21.361h21.285v-21.361z" fill="#000"/></svg>

<svg width="520" height="180" viewBox="0 0 520 180" fill="none" xmlns="http://www.w3.org/2000/svg">
<path d="M52.6012 86.8773H34.2366V68H23V118.163H34.2366V96.5028H52.6012V118.163H63.8419V68H52.6012V86.8773ZM104.462 95.2253C104.462 89.8843 103.486 86.9529 100.865 84.6217C98.0159 82.1409 93.8224 80.8633 88.3519 80.8633C78.1609 80.8633 72.9915 84.9212 72.3196 93.2733H81.8372C82.2861 90.3349 84.3842 88.9846 88.2808 88.9846C91.7284 88.9846 93.8265 90.2635 93.8265 92.2952C93.8265 93.798 93.0012 94.3941 90.6033 94.7761L84.8331 95.7556C74.7174 97.4109 70.4459 100.944 70.4459 107.789C70.4459 114.634 75.7672 119.147 83.7847 119.147C85.6775 119.24 87.5695 118.948 89.347 118.289C91.1244 117.629 92.7506 116.615 94.1277 115.309C94.4999 116.666 94.4999 116.891 94.9488 118.169H105.813C104.618 116.367 104.466 115.838 104.466 111.927L104.462 95.2253ZM94.1235 106.43C92.6527 109.368 89.601 111.163 86.329 111.019C82.9539 111.019 80.931 109.589 80.931 107.183C80.931 105 82.5802 103.723 86.4015 102.822L90.2255 101.995C91.5597 101.746 92.8674 101.367 94.1291 100.863L94.1235 106.43ZM132.269 80.785C128.519 80.785 126.275 81.7645 122.371 85.3717V81.8372H112.035V118.163H122.678V97.7845C122.678 94.625 123.051 93.1194 124.252 91.7677C124.83 91.1322 125.537 90.6285 126.325 90.2906C127.113 89.9527 127.965 89.7884 128.822 89.8088C130.532 89.7192 132.169 90.5112 133.167 91.9076C134.065 93.2621 134.292 94.6866 134.292 98.3722V118.163H144.929V94.6236C144.931 86.0504 140.135 80.785 132.269 80.785ZM176.037 84.549C173.67 81.9897 170.298 80.6115 166.822 80.785C157.08 80.785 150.637 88.4599 150.637 100.037C150.637 111.545 157.006 119.143 166.53 119.143C170.479 119.396 174.27 117.536 176.496 114.252V118.17H186.684V68H176.036L176.037 84.549ZM168.77 110.493C164.122 110.493 161.126 106.359 161.126 99.9632C161.126 93.5672 164.122 89.4338 168.77 89.4338C173.418 89.4338 176.411 93.6483 176.411 100.116C176.411 106.282 173.34 110.493 168.77 110.493ZM213.74 95.827L207.069 94.3997C203.698 93.6483 202.648 92.9697 202.648 91.618C202.648 89.813 204.671 88.6082 207.745 88.6082C211.268 88.6082 213.439 90.0382 213.888 92.7444H223.854C222.878 85.0723 217.26 80.8633 207.97 80.8633C198.303 80.8633 192.535 85.2976 192.535 92.5961C192.535 98.382 195.602 101.32 203.549 103.047L210.143 104.55C212.993 105.226 214.186 106.13 214.186 107.861C214.186 110.042 212.011 111.399 208.64 111.399C204.369 111.399 202.121 109.817 201.52 106.362H191.557C192.155 114.408 198.375 119.147 208.416 119.147C218.456 119.147 224.677 114.335 224.677 106.66C224.728 105.326 224.517 103.995 224.054 102.743C223.591 101.491 222.887 100.343 221.98 99.3657C220.405 97.7062 218.158 96.7337 213.74 95.827ZM247.388 80.8633C236.147 80.8633 228.207 88.7579 228.207 99.9632C228.207 111.245 236.153 119.143 247.388 119.143C258.552 119.143 266.648 111.245 266.648 100.265C266.648 88.6852 258.855 80.8633 247.388 80.8633ZM247.463 110.645C241.996 110.645 238.922 106.81 238.922 99.9632C238.922 93.195 241.989 89.361 247.388 89.361C252.934 89.361 255.933 93.195 255.933 100.188C255.933 106.808 252.785 110.645 247.463 110.645ZM292.585 80.7864C288.838 80.7864 286.591 81.7659 282.687 85.3731V81.8372H272.344V118.163H282.987V97.7845C282.987 94.625 283.36 93.1194 284.561 91.7677C285.139 91.1322 285.846 90.6285 286.634 90.2906C287.422 89.9527 288.274 89.7884 289.131 89.8088C290.841 89.7192 292.478 90.5112 293.476 91.9076C294.377 93.2621 294.601 94.6866 294.601 98.3722V118.163H305.238V94.6236C305.247 86.0504 300.451 80.7864 292.585 80.7864ZM324.593 70.7845H313.956V82.292H308.853V89.8116H313.95V106.358C313.95 111.997 314.399 113.951 316.041 115.755C317.615 117.487 319.945 118.163 324.58 118.163H331.102V110.116H327.282C324.81 110.116 324.58 109.666 324.58 103.95V89.8172H331.102V82.292H324.593V70.7845ZM368.131 95.2253C368.131 89.8843 367.155 86.9529 364.534 84.6217C361.685 82.1409 357.491 80.8633 352.021 80.8633C341.83 80.8633 336.66 84.9212 335.988 93.2733H345.504C345.953 90.3349 348.051 88.9846 351.948 88.9846C355.396 88.9846 357.494 90.2635 357.494 92.2952C357.494 93.798 356.669 94.3941 354.271 94.7761L348.5 95.7556C338.386 97.4109 334.113 100.944 334.113 107.789C334.113 114.634 339.435 119.147 347.452 119.147C349.345 119.24 351.237 118.948 353.014 118.289C354.792 117.629 356.418 116.615 357.795 115.309C358.167 116.666 358.167 116.891 358.616 118.169H369.483C368.288 116.367 368.136 115.838 368.136 111.927L368.131 95.2253ZM357.792 106.43C356.321 109.368 353.271 111.164 349.999 111.02C346.624 111.02 344.601 109.59 344.601 107.185C344.601 105.002 346.25 103.724 350.072 102.823L353.896 101.996C355.23 101.747 356.537 101.368 357.799 100.864L357.792 106.43ZM396.31 80.8633C392.679 80.8299 389.151 82.0807 386.346 84.3965V68H375.704V118.163H385.898V114.027C388.744 117.791 391.291 119.143 395.786 119.143C405.079 119.143 411.744 110.944 411.744 99.5126C411.746 88.3815 405.529 80.8633 396.312 80.8633H396.31ZM393.614 110.493C388.969 110.493 385.898 106.284 385.898 99.9632C385.898 93.7239 388.965 89.5093 393.614 89.5093C398.334 89.5093 401.255 93.5672 401.255 100.116C401.256 106.431 398.262 110.493 393.614 110.493ZM417.453 118.165H428.096V68H417.453V118.165ZM468.415 91.541C465.713 84.6973 459.946 80.8647 452.302 80.8647C441.362 80.8647 433.794 88.6866 433.794 100.035C433.794 111.468 441.213 119.14 452.38 119.14C460.994 119.14 467.74 114.626 469.763 107.557H458.971C457.643 109.733 455.213 110.981 452.677 110.789C448.107 110.789 445.181 108.083 444.507 103.123H470.211C470.389 99.1796 469.779 95.2407 468.414 91.5396L468.415 91.541ZM444.585 95.5989C445.407 91.3116 448.108 88.9804 452.227 88.9804C456.345 88.9804 458.822 91.3116 459.271 95.5989H444.585ZM475.715 124.639V146H497V124.639H475.715Z" fill="black"/>
</svg>
